X:5
T:La demoiselle de Montréal (pour Perrine)
C:Bruno Scherrer
M:3/4
K:C
L:1/8
V:1
"^A""Dm7"z.F2.A2.c|"G7"(B2G2F{_G}=G-|"CΔ"G6)|z6|
"Dm7"z.F2.A2.c|"G7"(B2c2d2|"CΔ"{_B}[G=Be]6)|z6|
"E∅"z.A2._B2.^c|"A7"(e2f2g2|"Dm7"(4:3:4g2f2e2f2|"Fm"[cf_a]4)gf|
%%score (1 2)
V:1
x6 | x6 | (g4f2) | x6 | x6 | (_edc) | 
V:2
"^B""C"[Gce]6 | "Ab6"[_Acf]6 | "Bb6"[_Bd]6 | "C"[Gce]6 |"Ab6"[_Ac]6 | "Bb6"[_B]6 |  
%%score (1)
V:1
"^C""Fm7"z._A2._e2.c|"Bb7"(d2c2_B{_d}=d-|"EbΔ"d6|"AbΔ"c6)|
"D∅"z.F2._A2.c|"G7"(B2G2F_E-|"Cm7"_E6|"C7"E6)|
"Fm7"z(FG_A_Bc|"Bb7"d2_e2f2|"EbΔ"{_d}=d4-dc/2_B/2|"AbΔ"c6)|
"D∅"z.c2.F2._A|c6|"G7"z.d2.F2.G|(d2cBAG)|
"^A'""Dm7"z.F2.A2.c|"G7"(B2G2F{_G}=G-|"CΔ"G6)|z6|
"Dm7"z.F2.A2.c|"G7"(B2c2d2|"CΔ"{_B}[G=Be]6)|z6|
"E∅"z.A2._B2.^c|"A7"(e2f2g2|"Dm7"{_g}=g6|f6) | 
"D∅"(f3_A3 |"Db7"G3e3|"CΔ"{_B}=B6)|z2(ABAG|
"D∅"f3_A3 | "Db7"G3e3)|"CΔ".[Beg].[Beg]2.[Beg]2.[Beg]|.[Beg]2z4||


